X:1
T:Fairer Than the Morning
T:John Robson Sweney
T:Fairer Than the Morning
T:Public Domain
T:Public Domain
C:John Robson Sweney
Z:Public Domain
%%score ( 1 2 ) ( 3 4 )
L:1/8
M:4/4
K:Ab
V:1 treble 
V:2 treble 
V:3 bass 
V:4 bass 
V:1
 [Ec]2 [CE]2 [DF]>[DA] [DA]>[DF] | [CE]4 [CA]4 | [EB]2 E2 [Ed]>[Ec] [EB]>[E=B] | [Ec]6 z2 | %4
w: 1.~Thou art fair- er than the|morn- ing,|O my Sav- ior and my|Of|
w: 2.~Clothed in light as with a|gar- ment,|Crowned with ma- jes- ty di-|Lo,|
w: 3.~Oh, the great- ness of Thy|mer- cy,|And the rich- ness of Thy|Oh,|
w: 4.~When the sil- ver cord is|brok- en,|And this mor- tal life is|With|
 [Ec]2 [_Ge]2 [Fe]>[Fd] [FA]>[_FB] | [Ec]4 [CA]4 | [EB]2 E2 [Ed]>[Ec] [Ec]>[DB] | [CA]6 || %8
w: Thy grand- eur and Thy beau-|ty, How|my soul de- lights to sing.||
w: the scep- ter of do- min-|ion Now|and ev- er, Lord, is Thine.|art|
w: the love that in Thy king-|dom Is|pre- par- ing me a place!||
w: ten thou- sand times ten thou-|sand, I|shall sing for ev- er- more.||
"^Refrain" [Ec]>[CA] | [DF]4- [DF]>[FA] [EG]>[DF] | [CE]4 [CA]2 [CA]>[DB] | %11
w: |||
w: fair- er|than * the morn- ing,|Thou art bright- er,|
w: |||
w: |||
 [Ec]2 [Ec]2 [Ee]>[Ee] [Ec]>[EA] | (E4 ED) [CA]>[DB] | [Ec]4- [Ec]>[Ec] [EB]>[_GA] | [FA]4 [DF]4 | %15
w: ||||
w: bright- er than the day; At|the * * glo- ry|Thy * pre- sence Clouds|and dark-|
w: ||||
w: ||||
 [CE]2 [EA]2 [Ed]>[Ed] [Ec]>[DB] | [CA]6 z2 |] %17
w: ||
w: ness flee a- way. * *||
w: ||
w: ||
V:2
 x8 | x8 | x2 E2 x4 | x8 | x8 | x8 | x2 E2 x4 | x6 || x2 | x8 | x8 | x8 | B6 x2 | x8 | x8 | x8 | %16
w: ||King!||||||||||||||
w: ||vine,||||Thou||||||of||||
w: ||grace!||||||||||||||
w: ||o’er,||||||||||||||
 x8 |] %17
w: |
w: |
w: |
w: |
V:3
 [A,,A,]2 [A,,A,]2 [D,A,]>[D,F,] [D,F,]>[D,A,] | [A,,A,]4 [A,,E,]4 | %2
w: ~ ~ ~ ~ ~ ~|~ ~|
 [E,G,]2 [E,G,]2 [E,B,]>[E,A,] [E,G,]>[E,G,] | A,6 z2 | %4
w: ~ ~ ~ ~ ~ ~|~|
 [A,,A,]2 [C,A,]2 [D,A,]>[D,A,] [D,A,]>[D,A,] | [A,,A,]4 [A,,E,]4 | %6
w: ~ ~ ~ ~ ~ ~|~ ~|
 [E,G,]2 [E,G,]2 [E,B,]>[E,A,] [E,A,]>E, | [A,,E,]6 || z2 | %9
w: ~ ~ ~ ~ ~ ~|art||
 z2 [D,A,]>[D,A,] [D,A,]>[D,D] [D,A,]>[D,A,] | [A,,A,]4 [A,,E,]2 A,>A, | %11
w: fair- er ~ ~ ~ ~|~ ~ ~ ~|
 A,2 A,2 [A,C]>[A,C] [A,,A,]>[C,A,] | [E,G,]6 z2 | z2 A,>A, A,>A, [G,B,]>[A,C] | [B,,D]4 [D,A,]4 | %15
w: ~ ~ ~ At the glo-||||
 [E,A,]2 [E,C]2 [E,B,]>[E,B,] [E,B,]>E, | [A,,E,]6 z2 |] %17
w: ||
V:4
 x8 | x8 | x8 | A,6 x2 | x8 | x8 | x15/2 E,/ | x6 || x2 | x8 | x6 A,>A, | A,2 A,2 x4 | x8 | %13
w: |||~|||Thou||||~ ~|ry *||
 x2 A,>A, A,>A, x2 | x8 | x15/2 E,/ | x8 |] %17
w: ||||

